SVG_Azure_All/SendGrid Account.svg

<?xml version="1.0" encoding="UTF-8" standalone="no"?>
<!-- Generated by Microsoft Visio, SVG Export SendGrid Account.svg Page-1 -->

<svg
   xmlns:dc="http://purl.org/dc/elements/1.1/"
   xmlns:cc="http://creativecommons.org/ns#"
   xmlns:rdf="http://www.w3.org/1999/02/22-rdf-syntax-ns#"
   xmlns:svg="http://www.w3.org/2000/svg"
   xmlns="http://www.w3.org/2000/svg"
   xmlns:sodipodi="http://sodipodi.sourceforge.net/DTD/sodipodi-0.dtd"
   xmlns:inkscape="http://www.inkscape.org/namespaces/inkscape"
   width="0.78744662in"
   height="0.78748149in"
   viewBox="0 0 56.696155 56.698808"
   xml:space="preserve"
   class="st4"
   version="1.1"
   id="svg45"
   sodipodi:docname="SendGrid Account.svg"
   style="font-size:12px;overflow:visible;color-interpolation-filters:sRGB;fill:none;fill-rule:evenodd;stroke-linecap:square;stroke-miterlimit:3"
   inkscape:version="0.92.5 (2060ec1f9f, 2020-04-08)"><metadata
   id="metadata49"><rdf:RDF><cc:Work
       rdf:about=""><dc:format>image/svg+xml</dc:format><dc:type
         rdf:resource="http://purl.org/dc/dcmitype/StillImage" /></cc:Work></rdf:RDF></metadata><sodipodi:namedview
   pagecolor="#ffffff"
   bordercolor="#666666"
   borderopacity="1"
   objecttolerance="10"
   gridtolerance="10"
   guidetolerance="10"
   inkscape:pageopacity="0"
   inkscape:pageshadow="2"
   inkscape:window-width="640"
   inkscape:window-height="480"
   id="namedview47"
   showgrid="false"
   inkscape:zoom="1.8365233"
   inkscape:cx="37.795184"
   inkscape:cy="18.900351"
   inkscape:window-x="0"
   inkscape:window-y="0"
   inkscape:window-maximized="0"
   inkscape:current-layer="svg45" />
	<style
   type="text/css"
   id="style2">
	<![CDATA[
		.st1 {fill:#005ba1;stroke:none;stroke-linecap:butt;stroke-width:0.75}
		.st2 {fill:#0078d4;stroke:none;stroke-linecap:butt;stroke-width:0.75}
		.st3 {fill:url(#grad0-11);stroke:none;stroke-linecap:butt;stroke-width:0.75}
		.st4 {fill:none;fill-rule:evenodd;font-size:12px;overflow:visible;stroke-linecap:square;stroke-miterlimit:3}
	]]>
	</style>

	<defs
   id="Patterns_And_Gradients">
		<linearGradient
   id="grad0-11"
   x1="0"
   y1="58.605488"
   x2="37.800003"
   y2="58.605488"
   gradientTransform="scale(1.0002645,0.99973559)"
   gradientUnits="userSpaceOnUse">
			<stop
   offset="0"
   stop-color="#32d4f5"
   stop-opacity="1"
   id="stop4" />
			<stop
   offset="0.23"
   stop-color="#31d0f1"
   stop-opacity="1"
   id="stop6" />
			<stop
   offset="0.46"
   stop-color="#2cc3e6"
   stop-opacity="1"
   id="stop8" />
			<stop
   offset="0.7"
   stop-color="#25afd4"
   stop-opacity="1"
   id="stop10" />
			<stop
   offset="0.94"
   stop-color="#1c92ba"
   stop-opacity="1"
   id="stop12" />
			<stop
   offset="1"
   stop-color="#198ab3"
   stop-opacity="1"
   id="stop14" />
		</linearGradient>
	</defs>
	<g
   id="g43"
   transform="translate(-5.6693772,-5.6654921)">
		<title
   id="title18">Page-1</title>
		<g
   id="group1750-1"
   transform="translate(5.66929,-34.0157)">
			<title
   id="title20">SendGrid Account</title>
			<g
   id="shape1751-2">
				<title
   id="title22">Sheet.1751</title>
				<path
   d="M 18.89,77.47 H 0 V 60.46 a 1.93967,1.90088 0 0 1 1.94,-1.87 h 17.01 z m 18.92,0 H 18.89 V 96.38 H 35.9 a 1.93967,1.90088 -180 0 0 1.94,-1.9 z"
   class="st1"
   id="path24"
   inkscape:connector-curvature="0"
   style="fill:#005ba1;stroke:none;stroke-width:0.75;stroke-linecap:butt" />
			</g>
			<g
   id="shape1752-4">
				<title
   id="title27">Sheet.1752</title>
				<path
   d="M 37.81,77.47 H 18.89 V 58.59 h 18.92 z m -18.92,0 H 0 v 17.01 a 1.93967,1.90088 -180 0 0 1.94,1.9 h 17.01 z"
   class="st2"
   id="path29"
   inkscape:connector-curvature="0"
   style="fill:#0078d4;stroke:none;stroke-width:0.75;stroke-linecap:butt" />
			</g>
			<g
   id="shape1753-6"
   transform="translate(18.8863,-18.9088)">
				<title
   id="title32">Sheet.1753</title>
				<path
   d="M 18.92,77.5 H 0 V 60.49 a 1.93967,1.90088 0 0 1 1.94,-1.9 h 17.01 z m 18.89,0 H 18.92 v 18.88 h 17.32 a 1.56535,1.53404 -180 0 0 1.57,-1.5 z"
   class="st2"
   id="path34"
   inkscape:connector-curvature="0"
   style="fill:#0078d4;stroke:none;stroke-width:0.75;stroke-linecap:butt" />
			</g>
			<g
   id="shape1754-8"
   transform="translate(18.8863,-18.9088)">
				<title
   id="title37">Sheet.1754</title>
				<path
   d="M 37.81,77.5 H 18.92 V 58.59 h 17.32 a 1.56535,1.53404 0 0 1 1.57,1.5 z m -18.89,0 H 0 v 17.01 a 1.93967,1.90088 -180 0 0 1.94,1.87 h 17.01 z"
   class="st3"
   id="path39"
   inkscape:connector-curvature="0"
   style="fill:url(#grad0-11);stroke:none;stroke-width:0.75;stroke-linecap:butt" />
			</g>
		</g>
	</g>
</svg>

<?xml version="1.0" encoding="UTF-8" standalone="no"?>
<!DOCTYPE svg PUBLIC "-//W3C//DTD SVG 1.1//EN" "http://www.w3.org/Graphics/SVG/1.1/DTD/svg11.dtd">
<!-- Generated by Microsoft Visio, SVG Export SendGrid Account.svg Page-1 -->
<svg xmlns="http://www.w3.org/2000/svg" xmlns:xlink="http://www.w3.org/1999/xlink" xmlns:ev="http://www.w3.org/2001/xml-events"
		width="0.944882in" height="1.33858in" viewBox="0 0 68.0315 96.378" xml:space="preserve" color-interpolation-filters="sRGB"
		class="st4">
	<style type="text/css">
	<![CDATA[
		.st1 {fill:#005ba1;stroke:none;stroke-linecap:butt;stroke-width:0.75}
		.st2 {fill:#0078d4;stroke:none;stroke-linecap:butt;stroke-width:0.75}
		.st3 {fill:url(#grad0-11);stroke:none;stroke-linecap:butt;stroke-width:0.75}
		.st4 {fill:none;fill-rule:evenodd;font-size:12px;overflow:visible;stroke-linecap:square;stroke-miterlimit:3}
	]]>
	</style>

	<defs id="Patterns_And_Gradients">
		<linearGradient id="grad0-11" x1="0" y1="0" x2="1" y2="0" gradientTransform="rotate(90 0.5 0.5)">
			<stop offset="0" stop-color="#32d4f5" stop-opacity="1"/>
			<stop offset="0.23" stop-color="#31d0f1" stop-opacity="1"/>
			<stop offset="0.46" stop-color="#2cc3e6" stop-opacity="1"/>
			<stop offset="0.7" stop-color="#25afd4" stop-opacity="1"/>
			<stop offset="0.94" stop-color="#1c92ba" stop-opacity="1"/>
			<stop offset="1" stop-color="#198ab3" stop-opacity="1"/>
		</linearGradient>
	</defs>
	<g>
		<title>Page-1</title>
		<g id="group1735-1" transform="translate(5.66929,-34.0157)">
			<title>SendGrid Account</title>
			<g id="shape1736-2">
				<title>Sheet.1736</title>
				<path d="M18.89 77.47 L0 77.47 L0 60.46 A1.93967 1.90088 0 0 1 1.94 58.59 L18.95 58.59 L18.89 77.47 ZM37.81 77.47
							 L18.89 77.47 L18.89 96.38 L35.9 96.38 A1.93967 1.90088 -180 0 0 37.84 94.48 L37.81 77.47 Z"
						class="st1"/>
			</g>
			<g id="shape1737-4">
				<title>Sheet.1737</title>
				<path d="M37.81 77.47 L18.89 77.47 L18.89 58.59 L37.81 58.59 L37.81 77.47 ZM18.89 77.47 L0 77.47 L0 94.48 A1.93967
							 1.90088 -180 0 0 1.94 96.38 L18.95 96.38 L18.89 77.47 Z" class="st2"/>
			</g>
			<g id="shape1738-6" transform="translate(18.8863,-18.9088)">
				<title>Sheet.1738</title>
				<path d="M18.92 77.5 L0 77.5 L0 60.49 A1.93967 1.90088 0 0 1 1.94 58.59 L18.95 58.59 L18.92 77.5 ZM37.81 77.5 L18.92
							 77.5 L18.92 96.38 L36.24 96.38 A1.56535 1.53404 -180 0 0 37.81 94.88 L37.81 77.5 Z" class="st2"/>
			</g>
			<g id="shape1739-8" transform="translate(18.8863,-18.9088)">
				<title>Sheet.1739</title>
				<path d="M37.81 77.5 L18.92 77.5 L18.92 58.59 L36.24 58.59 A1.56535 1.53404 0 0 1 37.81 60.09 L37.81 77.5 ZM18.92
							 77.5 L0 77.5 L0 94.51 A1.93967 1.90088 -180 0 0 1.94 96.38 L18.95 96.38 L18.92 77.5 Z" class="st3"/>
			</g>
		</g>
	</g>
</svg>
